X: 76
T: Miss MacLeod
N: as played by Howie MacDonald
M: C|
L: 1/8
Q: 1/2=112
R: reel
K: G
G2gf efge|dBBA BcdB|g3g efge|agfe dc'ba|
(3gag fg efge|dBBA Bcdf|egfa gbaf|gdBd cAFA:|
(3DEG BG DGBG|B3c BAGE|(3DEG BG cGBG|AFDF AcBA|
(3DEG BG DGBG|B3c Bcdf|egfa gbaf|gdBd cAFA:|
